assets/svg/0037-20e3.svg

<svg xmlns="http://www.w3.org/2000/svg" viewBox="0 0 64 64" enable-background="new 0 0 64 64"><path fill="#d0d0d0" d="m62 52c0 5.523-4.478 10-10 10h-40c-5.522 0-10-4.477-10-10v-40c0-5.523 4.478-10 10-10h40c5.522 0 10 4.477 10 10v40"/><path fill="#fff" d="M57,45.666C57,50.27,53.269,54,48.667,54H15.333C10.731,54,7,50.27,7,45.666V12.334
			C7,7.73,10.731,4,15.333,4h33.334C53.269,4,57,7.73,57,12.334V45.666z"/><path fill="#9aa0a5" d="m23 18.775v-5.775h20v4.514c-1.651 1.727-3.33 4.205-5.04 7.436-1.707 3.23-3.01 6.666-3.903 10.303-.895 3.637-1.335 6.887-1.321 9.748h-5.64c.098-4.484.968-9.06 2.612-13.721 1.644-4.662 3.84-8.83 6.586-12.504h-13.298"/></svg>

<svg xmlns="http://www.w3.org/2000/svg" width="64" height="64" viewBox="0 0 64 64"><path fill="#D0D0D0" d="M62 52c0 5.523-4.478 10-10 10H12C6.478 62 2 57.523 2 52V12C2 6.477 6.478 2 12 2h40c5.522 0 10 4.477 10 10v40z"/><path fill="#FFF" d="M57 45.666A8.333 8.333 0 0 1 48.667 54H15.333A8.333 8.333 0 0 1 7 45.666V12.334A8.333 8.333 0 0 1 15.333 4h33.334A8.333 8.333 0 0 1 57 12.334v33.332z"/><g><path fill="#9AA0A5" d="M23 18.775V13h20v4.514c-1.651 1.727-3.33 4.205-5.036 7.436a44.95 44.95 0 0 0-3.903 10.303c-.895 3.637-1.335 6.887-1.321 9.748H27.1c.098-4.484.968-9.059 2.612-13.721 1.644-4.662 3.84-8.83 6.586-12.504H23z"/></g></svg>
